img/icon/telegram.svg

<svg width="16" height="16" viewBox="0 0 16 16" fill="none" xmlns="http://www.w3.org/2000/svg">
<path fill-rule="evenodd" clip-rule="evenodd" d="M16 8C16 12.418 12.418 16 8 16C3.582 16 0 12.418 0 8C0 3.582 3.582 0 8 0C12.418 0 16 3.582 16 8ZM8.28667 5.906C7.50867 6.22933 5.95333 6.89933 3.62133 7.91533C3.24267 8.066 3.044 8.21333 3.026 8.35733C2.99533 8.60133 3.30067 8.69733 3.71533 8.82733C3.772 8.84533 3.83067 8.86333 3.89067 8.88333C4.29933 9.016 4.84867 9.17133 5.134 9.17733C5.39333 9.18267 5.68267 9.076 6.002 8.85733C8.18067 7.386 9.30533 6.64267 9.376 6.62667C9.426 6.61533 9.49533 6.60067 9.542 6.64267C9.58867 6.684 9.584 6.76267 9.57933 6.784C9.54867 6.91267 8.35267 8.02533 7.73267 8.60133C7.53933 8.78067 7.40267 8.908 7.37467 8.93733C7.312 9.002 7.248 9.064 7.18667 9.12333C6.80667 9.48867 6.52267 9.76333 7.20267 10.2113C7.52933 10.4267 7.79067 10.6047 8.05133 10.782C8.336 10.976 8.62 11.1693 8.988 11.4107C9.08133 11.472 9.17067 11.5353 9.258 11.5973C9.58933 11.834 9.88733 12.046 10.2553 12.0127C10.4687 11.9927 10.69 11.792 10.802 11.1927C11.0667 9.77533 11.588 6.706 11.7087 5.44067C11.716 5.33561 11.7115 5.23006 11.6953 5.126C11.6856 5.04195 11.6447 4.96462 11.5807 4.90933C11.4853 4.83133 11.3373 4.81467 11.2707 4.816C10.97 4.82133 10.5087 4.982 8.28667 5.906Z" fill="#2D3440"/>
</svg>

<svg width="16" height="16" fill="none" xmlns="http://www.w3.org/2000/svg"><path fill-rule="evenodd" clip-rule="evenodd" d="M16 8A8 8 0 1 1 0 8a8 8 0 0 1 16 0ZM8.29 5.9c-.78.33-2.34 1-4.67 2.02-.38.15-.58.3-.6.44-.02.24.28.34.7.47l.17.05c.4.14.96.3 1.24.3.26 0 .55-.1.87-.32a82.12 82.12 0 0 1 3.38-2.23c.05-.01.12-.03.16.01.05.04.04.12.04.14a22.62 22.62 0 0 1-2.2 2.16l-.2.18c-.37.37-.66.64.02 1.1.33.2.6.38.85.56a59.64 59.64 0 0 0 1.2.82c.34.23.64.45 1 .41.22-.02.44-.22.55-.82.27-1.41.79-4.48.9-5.75.02-.1.01-.21 0-.31a.34.34 0 0 0-.12-.22.52.52 0 0 0-.3-.1c-.31.01-.77.17-3 1.1Z" fill="#FCFCFC"/></svg>
